X:1
T:So Will I Comfort You
T:Thomas Payne Westendorf, 1886
T:So Will I Comfort You
T:Public Domain
T:Public Domain
C:Thomas Payne Westendorf, 1886
Z:Public Domain
%%score 1 ( 2 3 )
L:1/8
M:6/8
K:C
V:1 treble 
V:2 bass 
V:3 bass 
V:1
 [EG] | [EG][EG][EG] [EG][Ec][Gd] | [Fd]2 [Fc] [FA]2 [FA] | [FB][FB][FB] [FB][Fc][Fd] | %4
w: 1.~Oh,|sor- row- ing mor- tal, why|still des- pair, The|Fa- ther will glad- ly be-|
w: 2.~Thy|tears He will change in- to|jew- els bright, Thy|sighs will be turned in- to|
w: 3.~His|mer- cy en- dur- eth while|worlds de- cay, His|pi- ty doth ev- er a-|
 [Ec]3- [Ec]2 [EG] | [EG][EG][EG] [EG][Ec][Ge] | [Fd]2 [Fc] [FA]2 [FA] | %7
w: stow * A|ten- der com- pass- ion for|all thy care, A|
w: song; * Where|now there is dark- ness there|shall be light, The|
w: bide; * He’s|ten- der- ly call- ing for|thee to- day, From|
 [^Fd][Fd][Fd] [Fd][Fc][FA] | [DG]3 ||"^Refrain" [FG]3 | [EG][CE][DF] [EG]2 [Ec] | %11
w: balm for thy ev- er- y|woe.|||
w: weak through His pow- er be|strong.|“As|one whom his mo- ther|
w: o- ver the cr- ys- tal|tide.|||
 [Ge]2 [Fd] [Gc]3 | [Fc][FA][Ac] ([_Bd][Ac])[FA] | [EG]3- [EG]2 [EG] | [Gd]3- [Gd]2 [FG] | %15
w: ||||
w: com- fort- eth,|So will I com- * fort|you, * So|will, * so|
w: ||||
 [Ec]3- [Ec]2 [EG] | [Fd]2 [Fd] ([Fd][Ge])[Fd] | [Ec]6 |] %18
w: |||
w: will, * So|will I com- * fort|you.”|
w: |||
V:2
 [C,C] | [C,C][C,C][C,C] [C,C][C,G,][C,C] | [F,A,]2 [F,A,] [F,C]2 [F,D] | %3
 [G,D][G,D][G,D] [G,D][G,C][G,B,] | [C,C]3- [C,C]2 [C,C] | [C,C][C,C][C,C] [C,C][C,G,][C,C] | %6
 [F,A,]2 [F,A,] [F,C]2 [F,C] | [D,C][D,A,][D,A,] [D,A,][D,D][D,C] | [G,B,]3 || [G,B,]3 | %10
 [C,C][C,G,][C,G,] [C,C]2 [C,G,] | [C,C]2 [D,B,] [E,_B,]3 | [F,A,][F,C][F,A,] (F,A,)[F,C] | %13
 [C,C][C,C][C,C] [C,C]2 [C,C] | [G,B,]2 [G,B,] [G,B,][G,B,][G,B,] | %15
 [C,G,]2 [C,G,] [C,G,][C,G,][C,C] | [G,B,]2 [G,B,] [G,B,]2 G, | [C,G,]6 |] %18
V:3
 x | x6 | x6 | x6 | x6 | x6 | x6 | x6 | x3 || x3 | x6 | x6 | x3 F,2 x | x6 | x6 | x6 | x5 G, | %17
 x6 |] %18

